X:2278
T:Bugle Horn. JC.134
M:6/8
L:1/8
Q:180
S:John Clare,Poet,Helpstone (1793-1864)
R:Air
O:England
A:Northamptonshire
N:
Z:P Headford
K:D
a|(a2f)(f2d)|d2AA2A|(def) (efg)|f3e2a|!
(a2f)(f2d)|(d2A)(A2A)|B2g ec2|d3-d2:|!
|:f|(d3A2)f|d2fd2f|d3(A2a)|a2f(f2d)|!
(d2A)(A2A)|B2ge2c|d3-d2:|!
|:D|D3D3/2 D3/2|D3D3/2 D3/2|D2FD2F|D3A,2A|!
A2FF2D|(D2A,)A,3|B,2GE2C|D3-D2:|]


